Hatter-kde/actions/16/format-align-vertical-top.svg

<?xml version="1.0" encoding="UTF-8"?>
<svg viewBox="0 0 16 16" xmlns="http://www.w3.org/2000/svg">
 <defs id="defs3051">
  <style id="current-color-scheme" type="text/css">.ColorScheme-Text {
        color:#363636;
      }</style>
 </defs>
 <path class="ColorScheme-Text" d="m2 2v1h12v-1h-12zm6 2-3 3h2v7h2v-7h2l-3-3z" fill="currentColor"/>
</svg>

<svg xmlns="http://www.w3.org/2000/svg" viewBox="0 0 16 16">
  <defs id="defs3051">
    <style type="text/css" id="current-color-scheme">
      .ColorScheme-Text {
        color:#363636;
      }
      </style>
  </defs>
 <path style="fill:currentColor;fill-opacity:1;stroke:none" 
     d="M 2 2 L 2 3 L 14 3 L 14 2 L 2 2 z M 8 4 L 5 7 L 7 7 L 7 14 L 9 14 L 9 7 L 11 7 L 8 4 z "
     class="ColorScheme-Text"
     />
</svg>
